usr/share/icons/biglinux-icons-material/16/actions/insert-text.svg

<svg xmlns="http://www.w3.org/2000/svg" viewBox="0 0 16 16"><path d="M2 2v3h1V3h4v9H6v1h3v-1H8V3h4v2h1V2H2zm10 7v2h-2v1h2v2h1v-2h2v-1h-2V9h-1z" style="fill:currentColor;fill-opacity:1;stroke:none;color:#dedede"/></svg>

<svg xmlns="http://www.w3.org/2000/svg" viewBox="0 0 16 16">
  <defs id="defs3051">
    <style type="text/css" id="current-color-scheme">
      .ColorScheme-Text {
        color:#dedede;
      }
      </style>
  </defs>
 <path style="fill:currentColor;fill-opacity:1;stroke:none" 
     d="M 2 2 L 2 3 L 2 5 L 3 5 L 3 3 L 7 3 L 7 12 L 6 12 L 6 13 L 9 13 L 9 12 L 8 12 L 8 3 L 12 3 L 12 5 L 13 5 L 13 2 L 3 2 L 2 2 z M 12 9 L 12 11 L 10 11 L 10 12 L 12 12 L 12 14 L 13 14 L 13 12 L 15 12 L 15 11 L 13 11 L 13 9 L 12 9 z "
     class="ColorScheme-Text"
     />
</svg>
